!!!COM: Ludwig van Beethoven
!!!CNT: Deutsch
!!!TXO: Deutsch
!!!OTL: "Aus Goethes Faust"
!!!LYR: Goethe, Johann Wolfgang
!!!OPS: Op. 75
!!!ONM: No. 3
!!!ENC: Amanda Harris
!!!YOR: Sa2mtliche Lieder, Band 1
!!!YOR: G. Henle Verlag
!!!ODT: 1809/
!!NB: Vocal melody and text encoded.
**kern	**silbe
*clefG2	*
*k[b-e-]	*
*M2/4	*
*MM[poco allegretto]	*
=5	=5
4r	.
8r	.
{8d	{Es
=6	=6
8.g	war
16g	ein-
8g	-mal
8g	ein
=7	=7
8g	Ko2-
8g	-nig,
8r	.
8g	der
=8	=8
8g	hatt'
16g	ei-
16a	-nen
8b	gro-
8f#	-ssen
=9	=9
4g	Floh,
8r	.
8b	den
=10	=10
8a	liebt'
8fn	er
8f	gar
8en	nicht
=11	=11
8f	we-
8f	-nig,
8r	.
8f	als
=12	=12
8f	wie
16e-	sei-
16f	-nen
8e-	eig-
16d	-nen
16C	|
=13	=13
4C}	Sohn.}
8r	.
{16C	{Da
16d	|
=14	=14
8e-	rief
8e-	er
8e-	sei-
8e-	-nen
=15	=15
4f	Schnei-
8f	-der,
8f	der
=16	=16
8g	Schnei-
8g	-der
8a	kam
16g	her-
16a	|
=17	=17
4b-	-an:
4b-	"Da,
=18	=18
8g	miss
8dd	dem
8dd	Jun-
8cc	-ker
=19	=19
8.b	Klei-
16a	|
8g	-der
8b-	und
=20	=20
8a	miss
8a	ihm
8a	Ho-
16g	-sen
16a	|
=21	=21
4bn}	an!"}
4r	.
=29	=29
4r	.
8r	.
{8d	{In
=30	=30
8.g	Sam-
16g	-met
8g	und
8g	in
=31	=31
8g	Sei-
8g	-de
8r	.
8g	war
=32	=32
8g	er
16g	nun
16a	|
8b	an-
8f#	-ge-
=33	=33
4g	-tan,
8r	.
16.b-	hat-
32b-	-te
=34	=34
8a	Ba2n-
8fn	-der
8f	auf
8en	dem
=35	=35
8f	Klei-
8f	-de
8r	.
8f	hatt'
=36	=36
8f	auch
16e-	ein
16f	|
8e-	Kreuz
16d	da-
16C	|
=37	=37
4C}	-ran}
8r	.
{16C	{und
16d	|
=38	=38
8e-	war
8e-	so-
8e-	-gleich
8e-	Mi-
=39	=39
4f	-ni-
8f	-ster
8f	und
=40	=40
8g	hatt'
16g	ei-
16g	-nen
8a	gro-
16g	ssen
16a	|
=41	=41
4b-	Stern.
4b-	Da
=42	=42
8g	wur-
8dd	-den
8dd	sei-
16cc	-ne
16cc	Ge-
=43	=43
8.b-	-schwi-
16a	|
8g	-ster
8b-	bei
=44	=44
8a	Hof
8a	auch
8a	gro-
16g	-sse
16a	|
=45	=45
4bn}	Herrn.}
4r	.
=53	=53
4r	.
8r	.
{8d	{Und
=54	=54
8.g	Herrn
16g	und
8g	Fraun
8g	am
=55	=55
8g	Ho-
8g	-fe,
8r	.
8g	die
=56	=56
8g	wa-
16g	-ren
16a	|
8b-	sehr
8f#	ge-
=57	=57
4g	-plagt,
8r	.
8b-	die
=58	=58
8a	Ko2-
16fn	-ni-
16f	-gin
8f	und
8en	die
=59	=59
8f	Zo-
8f	-fe
8r	.
8f	ge-
=60	=60
8f	-sto-
16e-	-chen
16f	|
8e-	und
16d	ge-
16C	|
=61	=61
4C}	-nagt,}
8r	.
{16C	{und
16d	|
=62	=62
8e-	durf-
8e-	-ten
8e-	sie
8e-	nicht
=63	=63
4f	knick-
8f	-en
8f	und
=64	=64
8g	weg
8g	sie
8a	juk-
16g	-ken
16a	|
=65	=65
4b-	nicht.
4b-	Wir
=66	=66
8g	knick-
8dd	-en
8dd	und
8cc	er-
=67	=67
8.b-	-stik-
16a	-ken
8g	doch,
8b-	doch
=68	=68
8a	gleich,
8a	wenn
8a	ei-
16g	-ner
16a	|
=69	=69
4bn}	sticht.}
{4b-	{Wir
=70	=70
8g	knick-
8dd	-ken
8dd	und
8cc	er-
=71	=71
8.b-	-stik-
16a	-ken
8g	doch,
8b-	doch
=72	=72
8a	gleich,
8a	wenn
8a	ei-
16g	-ner
16a	|
=73	=73
8bn	sticht,
16bn	ja,
16bn	wir
16cc	knick-
16cc	-en
16cc	und
16cc	er-
=74	=74
16b-	-stick-
16b-	-en
16b-	doch
16b-	gleich,
16a	gleich,
16a	wenn
16a	ei-
16a	-ner
=75	=75
16bn	sticht,
16dd	ja,
16bn	ja,
16bn	wir
16cc	knick-
16cc	-en
16cc	und
16cc	er-
=76	=76
16b-	-stick-
16b-	-en
16b-	doch,
16b-	doch
16a	gleich,
16a	wenn
16a	ei-
16a	-ner
=77	=77
8bn	sti-
8bn	|
8bn	|
8bn	|
=78	=78
[2bn	|
=79	=79
8bn]}	-cht.}
8r	.
4r	.
*-	*-
